tools/download-figma-icons/icons/solid/printer.svg

<svg width="24" height="24" viewBox="0 0 24 24" fill="none" xmlns="http://www.w3.org/2000/svg">
<path fill-rule="evenodd" clip-rule="evenodd" d="M6 8.9925H18V1.5H6V8.9925ZM6 22.5H18V18H6V22.5ZM5.25 13.5H3.75C3.3375 13.5 3 13.1625 3 12.75C3 12.3375 3.3375 12 3.75 12H5.25C5.67 12 6 12.3375 6 12.75C6 13.1625 5.67 13.5 5.25 13.5ZM21 8.9925H19.5V0.75C19.5 0.3375 19.17 0 18.75 0H5.25C4.8375 0 4.5 0.3375 4.5 0.75V8.9925H3C1.35 8.9925 0 10.335 0 11.9925V20.25C0 20.6625 0.3375 21 0.75 21H4.5V23.25C4.5 23.6625 4.8375 24 5.25 24H18.75C19.17 24 19.5 23.6625 19.5 23.25V21H23.25C23.67 21 24 20.6625 24 20.25V11.9925C24 10.335 22.6575 8.9925 21 8.9925Z" fill="black"/>
</svg>

<svg width="24" height="24" viewBox="0 0 24 24" fill="none" xmlns="http://www.w3.org/2000/svg"><path fill-rule="evenodd" clip-rule="evenodd" d="M6 8.992h12V1.5H6v7.492ZM6 22.5h12V18H6v4.5Zm-.75-9h-1.5a.752.752 0 0 1-.75-.75c0-.412.337-.75.75-.75h1.5c.42 0 .75.338.75.75s-.33.75-.75.75ZM21 8.992h-1.5V.75c0-.412-.33-.75-.75-.75H5.25a.752.752 0 0 0-.75.75v8.242H3c-1.65 0-3 1.343-3 3v8.258c0 .413.338.75.75.75H4.5v2.25c0 .413.338.75.75.75h13.5c.42 0 .75-.337.75-.75V21h3.75c.42 0 .75-.337.75-.75v-8.258a3 3 0 0 0-3-3Z" fill="currentColor"/></svg>
